www/assets/icons/reply_all.svg

<svg xmlns="http://www.w3.org/2000/svg" width="24" height="24" viewBox="0 0 24 24" fill='currentColor'><path d="M7 7.5v-3l-7 7 7 7v-3l-4-4zm6 1v-4l-7 7 7 7v-4.1c5 0 8.5 1.6 11 5.1-1-5-4-10-11-11"/></svg>

<svg width="24" height="24" viewBox="0 0 24 24" xmlns="http://www.w3.org/2000/svg" fill='currentColor'><path d="M7 7.5V4.5L0 11.5L7 18.5V15.5L3 11.5L7 7.5ZM13 8.5V4.5L6 11.5L13 18.5V14.4C18 14.4 21.5 16 24 19.5C23 14.5 20 9.5 13 8.5Z"/></svg>
